X:182
T:Polska efter Per Karlsson Viksten
T:(SvL Jämtland 182)
R:Polska
B:Svenska Låtar Jämtland
S:Per Karlsson Viksten
O:Undersåker, Jämtland
M:3/4
L:1/8
K:Ddor
va2 (3a(ba) ge|fe (3g(fe) de|f2 (3f(gf) e^c|(3e(fe) (3d(^cB) A2|
a2 (3a(ba) ge|fe (3g(fe) d(f| a2) d>e ^c2|1 d6:|2 d4 z (vA]|
|:d2) d>(e ^c)A|^cd (3[ee](^fe) d>(e|=f2) ff e^c|(3e(^fe) (3d(^cB) Ac|
d2 de ^cA|^c>d (3e^fe d>f|a2 d>e ^c2|1 d4 z(vA:|2 d6]|

